icons/midnadark/actions/24/document-save-as-template.svg

<?xml version="1.0" encoding="UTF-8" standalone="no"?>
<!-- Created with Inkscape (http://www.inkscape.org/) -->

<svg
   xmlns:dc="http://purl.org/dc/elements/1.1/"
   xmlns:cc="http://creativecommons.org/ns#"
   xmlns:rdf="http://www.w3.org/1999/02/22-rdf-syntax-ns#"
   xmlns:svg="http://www.w3.org/2000/svg"
   xmlns="http://www.w3.org/2000/svg"
   xmlns:sodipodi="http://sodipodi.sourceforge.net/DTD/sodipodi-0.dtd"
   xmlns:inkscape="http://www.inkscape.org/namespaces/inkscape"
   width="22"
   height="22"
   id="svg2"
   version="1.1"
   inkscape:version="0.91 r13725"
   viewBox="0 0 22 22"
   sodipodi:docname="document-save-as-template.svg">
  <defs
     id="defs4" />
  <sodipodi:namedview
     id="base"
     pagecolor="#ffffff"
     bordercolor="#666666"
     borderopacity="1.0"
     inkscape:pageopacity="0.0"
     inkscape:pageshadow="2"
     inkscape:zoom="15.839192"
     inkscape:cx="0.72767315"
     inkscape:cy="12.533698"
     inkscape:document-units="px"
     inkscape:current-layer="layer1"
     showgrid="true"
     inkscape:showpageshadow="false"
     borderlayer="true"
     inkscape:window-width="1920"
     inkscape:window-height="1018"
     inkscape:window-x="0"
     inkscape:window-y="0"
     inkscape:window-maximized="1"
     units="px">
    <sodipodi:guide
       position="2,20.000017"
       orientation="18,0"
       id="guide4085" />
    <sodipodi:guide
       position="20,2.0000174"
       orientation="-18,0"
       id="guide4089" />
    <sodipodi:guide
       position="20,20.000017"
       orientation="0,-18"
       id="guide4091" />
    <sodipodi:guide
       position="3,19.000017"
       orientation="16,0"
       id="guide4093" />
    <sodipodi:guide
       position="3,3.0000174"
       orientation="0,16"
       id="guide4095" />
    <sodipodi:guide
       position="19,3.0000174"
       orientation="-16,0"
       id="guide4097" />
    <sodipodi:guide
       position="19,19.000017"
       orientation="0,-16"
       id="guide4099" />
    <inkscape:grid
       type="xygrid"
       id="grid4101" />
  </sodipodi:namedview>
  <metadata
     id="metadata7">
    <rdf:RDF>
      <cc:Work
         rdf:about="">
        <dc:format>image/svg+xml</dc:format>
        <dc:type
           rdf:resource="http://purl.org/dc/dcmitype/StillImage" />
        <dc:title />
        <dc:date>2015-12-16</dc:date>
        <dc:creator>
          <cc:Agent>
            <dc:title>TesX</dc:title>
          </cc:Agent>
        </dc:creator>
        <dc:rights>
          <cc:Agent>
            <dc:title />
          </cc:Agent>
        </dc:rights>
        <dc:language>English</dc:language>
        <dc:description />
        <cc:license
           rdf:resource="" />
      </cc:Work>
    </rdf:RDF>
  </metadata>
  <g
     inkscape:label="Capa 1"
     inkscape:groupmode="layer"
     id="layer1"
     transform="translate(0,-1030.3622)">
    <path
       style="fill:#f2f2f2;fill-opacity:1;stroke:none"
       d="M 2,2.9980469 2,3 l 0,1 0,15 1,0 9,0 0,-1 -6,0 0,-6 9,0 0,-1 -9,0 -1,0 0,7 L 3,18 3,4 6,4 6,8 6,9 14,9 14,8 14,4 14.292969,4 17,6.7070312 17,7 l 0,5 1,0 0,-5 0,-0.6992188 -0.0078,0 0.0078,-0.00977 -3.292969,-3.2929687 -0.0078,0.00977 0,-0.00977 -0.699219,0 z M 7,4 l 3.900391,0 0,4 L 7,8 Z"
       transform="translate(0,1030.3622)"
       id="rect4126"
       inkscape:connector-curvature="0"
       sodipodi:nodetypes="ccccccccccccccccccccccccccccccccccccccccc" />
    <path
       transform="matrix(0.53810378,-0.14418447,0.14418447,0.53810378,-247.0968,800.59753)"
       inkscape:transform-center-y="-0.47547164"
       inkscape:transform-center-x="-0.2745226"
       d="m 347.20167,549.75597 -3.0655,0.24535 0.55641,3.02455 -2.34113,-1.99414 -1.74523,2.53212 -0.24536,-3.0655 -3.02455,0.55641 1.99414,-2.34112 -2.53212,-1.74524 3.0655,-0.24536 -0.55641,-3.02455 2.34113,1.99415 1.74523,-2.53213 0.24536,3.0655 3.02455,-0.55641 -1.99414,2.34113 z"
       inkscape:randomized="0"
       inkscape:rounded="0"
       inkscape:flatsided="false"
       sodipodi:arg2="0.65449847"
       sodipodi:arg1="0.26179939"
       sodipodi:r2="2.6925824"
       sodipodi:r1="5.3851647"
       sodipodi:cy="548.36218"
       sodipodi:cx="342"
       sodipodi:sides="8"
       id="path4160-0"
       style="opacity:1;fill:#f2f2f2;fill-opacity:1;stroke:none;stroke-width:2.79999995;stroke-miterlimit:4;stroke-dasharray:none;stroke-opacity:0.55026455"
       sodipodi:type="star" />
  </g>
</svg>

<svg xmlns="http://www.w3.org/2000/svg" viewBox="0 0 22 22"><g fill="#f2f2f2"><path d="m2 2.998v.002 1 15h1 9v-1h-6v-6h9v-1h-9-1v7h-2v-14h3v4 1h8v-1-4h.293l2.707 2.707v.293 5h1v-5-.699h-.008l.008-.001-3.293-3.293-.008.001v-.001h-.699zm5 1h3.9v4h-3.9"/><path transform="matrix(.5381-.14418.14418.5381-247.1-229.76)" d="m347.2 549.76l-3.065.245.556 3.02-2.341-1.994-1.745 2.532-.245-3.066-3.02.556 1.994-2.341-2.532-1.745 3.065-.245-.556-3.02 2.341 1.994 1.745-2.532.245 3.066 3.02-.556-1.994 2.341z"/></g></svg>
